static/assets/images/networks/avalanche.svg

<svg xmlns="http://www.w3.org/2000/svg" fill="none" viewBox="0 0 512 512"><path fill="#DD3E3E" d="M256 512c141.386 0 256-114.614 256-256C512 114.615 397.386 0 256 0 114.615 0 0 114.615 0 256c0 141.386 114.615 256 256 256"/><path fill="#fff" d="M177.393 369.854h-53.075c-11.153 0-16.662 0-20.021-2.149-3.628-2.353-5.845-6.25-6.114-10.552-.201-3.963 2.554-8.802 8.063-18.478l131.049-231.032c5.577-9.81 8.398-14.716 11.959-16.53a13.52 13.52 0 0 1 12.228 0c3.561 1.814 6.382 6.72 11.958 16.53l27.079 47.276c6.023 10.525 9.077 15.863 10.411 21.464a39.9 39.9 0 0 1 0 18.681c-1.344 5.644-4.368 11.02-10.481 21.704l-68.838 121.705-.178.312-.003.006c-6.06 10.608-9.132 15.985-13.39 20.041a40.1 40.1 0 0 1-16.326 9.477c-5.576 1.545-11.824 1.545-24.321 1.545M311.427 369.854h76.051c11.219 0 16.864 0 20.225-2.215a13.45 13.45 0 0 0 6.114-10.617c.193-3.835-2.501-8.486-7.781-17.599l-.001-.001q-.236-.403-.476-.82l-.074-.127-38.094-65.18-.434-.734-.008-.013c-5.348-9.045-8.049-13.613-11.517-15.38a13.38 13.38 0 0 0-12.16 0c-3.494 1.815-6.315 6.585-11.892 16.194l-37.959 65.18-.13.224-.001.003c-5.556 9.592-8.333 14.385-8.132 18.319.268 4.301 2.485 8.264 6.113 10.617 3.292 2.149 8.936 2.149 20.156 2.149"/></svg>

<svg width="512" height="512" viewBox="0 0 512 512" fill="none" xmlns="http://www.w3.org/2000/svg">
<path d="M256 512C397.386 512 512 397.386 512 256C512 114.615 397.386 0 256 0C114.615 0 0 114.615 0 256C0 397.386 114.615 512 256 512Z" fill="#DD3E3E"/>
<path d="M177.393 369.854H124.318C113.165 369.854 107.656 369.854 104.297 367.705C100.669 365.352 98.4522 361.455 98.1834 357.153C97.9817 353.19 100.737 348.351 106.246 338.675L237.295 107.643C242.872 97.8321 245.693 92.9267 249.254 91.1126C253.084 89.164 257.652 89.164 261.482 91.1126C265.043 92.9267 267.864 97.8321 273.44 107.643L300.519 154.919C306.542 165.444 309.596 170.782 310.93 176.383C312.407 182.498 312.407 188.949 310.93 195.064C309.586 200.708 306.562 206.084 300.449 216.768L231.611 338.473L231.433 338.785L231.43 338.791C225.37 349.399 222.298 354.776 218.04 358.832C213.404 363.268 207.828 366.492 201.714 368.309C196.138 369.854 189.89 369.854 177.393 369.854Z" fill="white"/>
<path d="M311.427 369.854H387.478C398.697 369.854 404.342 369.854 407.703 367.639C411.33 365.286 413.613 361.32 413.817 357.022C414.01 353.187 411.316 348.536 406.036 339.423L406.035 339.422C405.877 339.153 405.719 338.88 405.559 338.602L405.485 338.475L367.391 273.295L366.957 272.561L366.949 272.548C361.601 263.503 358.9 258.935 355.432 257.168C351.604 255.219 347.1 255.219 343.272 257.168C339.778 258.983 336.957 263.753 331.38 273.362L293.421 338.542L293.291 338.766L293.29 338.769C287.734 348.361 284.957 353.154 285.158 357.088C285.426 361.389 287.643 365.352 291.271 367.705C294.563 369.854 300.207 369.854 311.427 369.854Z" fill="white"/>
</svg>
